X:1
T:Vienne pace
T:Vienne pace
T:Gio.Girolamo Kapsperger
C:Gio.Girolamo Kapsperger
%%score [ 1 2 ] { ( 3 5 ) | ( 4 6 ) }
L:1/8
Q:1/4=120
M:3/2
K:C
V:1 treble nm="Soprano 1" snm="S 1"
V:2 treble nm="Soprano 2" snm="S 2"
V:3 treble nm="BC" snm="BC"
V:5 treble 
V:4 bass 
V:6 bass 
V:1
 d8 e4 | d8 c4 | B4 A8 | G8 d4 | e4 d2 e2 f2 e2 | B2 c2 d2 c2 B4 |1 A12 :|2 A8 c2 d2 |: e4 d6 c2 | %9
w: Vien- ne|pa- ce|gen- til,|vien, ch'u-|mil te _ sol _|chie- * do _ nel|sen',|sen'. Ne' can-|giar' bra- mo|
w: Scan- ni|ca- ro|mio ben,|st'a, ch'il|sen piu _ gran _|gio- * ia _ non|ha,|ha. E'l de-|sir' go- de'a|
w: Van- ne|pom- pa|d'ho- nor',|va', che'l|cor mag- * gior _|pe- * no _ non|sa,|sa. Col na|sol di do-|
w: Din- ne|lie- to|mio cor,|di', qual'|hor' al _ sen _|pa- * ce _ s'u-|ni,|ni. Iun- ge|dal fol- le'ho-|
 B4 c6 d2 | e2 G4 A2 B4 | d4 A6 B2 |1 G8 c2 d2 :|2[M:4/4] G8 |: z2 e2 e3 d | d3 e c4 | %16
w: stil, ca- r'a|me, ca- r'a me|pa- ce gen-|til, ne' can-|til.|Del cor gen-|til se- re-|
w: pien', vol- to'a|te, vol- to'a te|ca- ro mio|ben, E'l de-|ben.|||
w: lor', sen- za|fe', sen- za fe|pom- pa d'ho-|nor, Col na|nor.|||
w: nor, go- de'in|fe, go- de'in fe|lie- to'il mio|cor, Iun- ge|cor.|||
 c2 AB c2 c2 | z2 cd e3 f/e/ | d4 c4 :| %19
w: no, pa- ce ri- da,|pa- ce ri da nel|se- no.|
w: |||
w: |||
w: |||
V:2
 B8 c4 | G8 ^F4 | G4 G4 ^F4 | G8 B4 | c4 B2 c2 d2 c2 | ^G2 A2 B2 A2 G4 |1 A12 :|2 A8 A2 B2 |: %8
w: Vien- ne|pa- ce|gen- til, _|vien ch'u-|mil te _ sol _|chie- * do _ nel|sen',|sen'. Ne' can-|
w: Scan- ni|ca- ro|mio ben, _|st'a, ch'il|sen piu _ gran _|gio- * ia _ non|ha,|ha. E'l de-|
w: Van- ne|pom- pa|d'ho- nor', _|va', che'l|cor mag- * gior _|pe- * no _ non|sa,|sa. Col na|
w: Din- ne|lie- to|mio cor, _|di', qual'|hor' al _ sen _|pa- * ce _ s'u-|ni,|ni. Iun- ge|
 c4 B6 A2 | G4 A6 B2 | c2 E4 ^F2 G4 | B4 ^F6 G2 |1 G8 A2 B2 :|2[M:4/4] G8 |: z2 c2 c3 B | B3 c A4 | %16
w: giar' bra- mo|stil, ca- r'a|me, ca- r'a me|pa- ce gen-|til, ne' can-|til.|Del cor gen-|til se- re-|
w: sir go- de'a|pien', vol- to'a|te, vol- to'a te|ca- ro mio|ben, E'l de-|ben.|||
w: sol di do-|lor', sen- za|fe', sen- za fe|pom- pa d'ho-|nor, Col na|nor.|||
w: dal fol- le'ho-|nor, go- de'in|fe, go- de'in fe|lie- to'il mio|cor, Iun- ge|cor.|||
 A2 FG A2 A2 | z2 AB c3 d/c/ | c2 B2 c4 :| %19
w: no, pa- ce ri- da,|pa- ce ri- da nel|se- * no.|
w: |||
w: |||
w: |||
V:3
 [GBd]8 [EGc]4 | [Gd]8 [^Fc]4 | B4 d8 | [GB]8 [DB]4 | [EGc]4 [Gd]4 [Ac]4 | %5
 [^GB]2 [Ac]2 [Bd]2 [Ac]2 [GB]4 |1 [EAc]12 :|2 [EAc]8 [Ec]4 |: [Ac]4 [DB]6 [Ac]2 | %9
 [DB]4 [Ac]6 [Bd]2 | [EG]6 [^FA]2 [DB]4 | [Gd]4 [^FAd]6 [Gc]2 |1 [DB]8 [Ac]4 :|2[M:4/4] [GBd]8 |: %14
 [EGc]8 | B4 A4 | A2 cB A4 | [FAc]4 [Gc-]4 | c2 B2 [Gc]4 :| %19
V:4
 G,8 C,4 | B,,8 A,,4 | D,4 A,8 | E,8 G,4 | C,4 B,,4 A,,4 | D,4 E,6 E,2 |1 A,,8 z4 :|2 A,,8 A,4 |: %8
 E,4 ^F,6 F,2 | G,4 F,4 D,4 | C,4 A,,4 G,,4 | B,,4 D,6 D,2 |1 G,,8 A,,4 :|2[M:4/4] G,,8 |: %14
 z2 C,2 C,2 C,2 | G,3 E, F,4 | F,4 F,4 | z2 F,2 E,4 | G,4 C,4 :| %19
V:5
 x12 | x12 | D4 G4 ^F4 | x12 | x12 | x12 |1 x12 :|2 x12 |: x12 | x12 | x12 | x12 |1 x12 :|2 %13
[M:4/4] x8 |: x8 | G4 C2 DE | F2 ED C4 | x8 | D4 E4 :| %19
V:6
 x12 | x12 | G,,4 D,6 D,2 | x12 | x12 | x12 |1 x12 :|2 x12 |: x12 | x12 | x12 | x12 |1 x12 :|2 %13
[M:4/4] x8 |: x8 | x8 | x8 | x8 | x8 :| %19

